src/icons/categories/mobile.svg

<svg width="19" height="33" viewBox="0 0 19 33" fill="none" xmlns="http://www.w3.org/2000/svg">
<path d="M16.5498 32.4114H1.90166C1.06876 32.4114 0.398811 31.7485 0.398811 30.9244V2.54512C0.398811 1.72097 1.06876 1.05807 1.90166 1.05807H16.5498C17.3827 1.05807 18.0527 1.72097 18.0527 2.54512V30.9244C18.0527 31.7485 17.3827 32.4114 16.5498 32.4114Z" fill="#E7EFE7"/>
<path d="M16.5493 32.4109H16.4226V1.05759H16.5493C17.3822 1.05759 18.0522 1.72049 18.0522 2.54463V30.9239C18.0522 31.748 17.3822 32.4109 16.5493 32.4109Z" fill="#DBE3DC"/>
<path d="M2.01028 32.4114H1.88354C1.05064 32.4114 0.380692 31.7485 0.380692 30.9244V2.54512C0.380692 1.72097 1.05064 1.05807 1.88354 1.05807H2.01028V32.4114Z" fill="#DBE3DC"/>
<path d="M5.50437 27.9857H3.49454L7.87633 4.64087H9.88615L5.50437 27.9857Z" fill="#F8F8ED"/>
<path d="M7.04343 27.9857L11.4252 4.64087H12.5297L8.14793 27.9857" fill="#F8F8ED"/>
<path d="M16.5485 32.7692H1.90036C0.868284 32.7692 0.0172729 31.9272 0.0172729 30.906V2.54462C0.0172729 1.5234 0.868284 0.681335 1.90036 0.681335H16.5485C17.5806 0.681335 18.4316 1.5234 18.4316 2.54462V30.9239C18.4135 31.9451 17.5806 32.7692 16.5485 32.7692ZM1.88225 1.4159C1.24852 1.4159 0.741534 1.91755 0.741534 2.54462V30.9239C0.741534 31.5509 1.24852 32.0526 1.88225 32.0526H16.5304C17.1642 32.0526 17.6711 31.5509 17.6711 30.9239V2.54462C17.6711 1.91755 17.1642 1.4159 16.5304 1.4159H1.88225Z" fill="#332247"/>
<path d="M18.0527 4.64131H0.380692V2.54512C0.380692 1.72097 1.05064 1.05807 1.88354 1.05807H16.5317C17.3646 1.05807 18.0346 1.72097 18.0346 2.54512V4.64131H18.0527Z" fill="#F0592C"/>
<path d="M2.01028 4.64131H0.380692V2.54512C0.380692 1.72097 1.05064 1.05807 1.88354 1.05807H2.01028V4.64131Z" fill="#DB4C22"/>
<path d="M18.0522 4.64083H16.4226V1.05759H16.5493C17.3822 1.05759 18.0522 1.72049 18.0522 2.54463V4.64083Z" fill="#DB4C22"/>
<path d="M18.0522 5.01706H0.380233C0.181061 5.01706 0 4.85581 0 4.64082V2.54462C0 1.5234 0.851006 0.681335 1.88308 0.681335H16.5313C17.5633 0.681335 18.4143 1.5234 18.4143 2.54462V4.64082C18.4143 4.85581 18.2514 5.01706 18.0522 5.01706ZM0.760471 4.28249H17.6901V2.54462C17.6901 1.91755 17.1831 1.4159 16.5494 1.4159H1.90119C1.26746 1.4159 0.760471 1.91755 0.760471 2.54462V4.28249Z" fill="#332247"/>
<path d="M16.5493 32.411H1.90114C1.06824 32.411 0.398293 31.7481 0.398293 30.9239V27.9857H18.0703V30.9239C18.0522 31.7481 17.3822 32.411 16.5493 32.411Z" fill="#F0592C"/>
<path d="M16.5493 32.411H16.4226V27.9857H18.0522V30.9239C18.0522 31.7481 17.3822 32.411 16.5493 32.411Z" fill="#DB4C22"/>
<path d="M2.00979 32.411H1.88305C1.05015 32.411 0.380203 31.7481 0.380203 30.9239V27.9857H2.00979V32.411Z" fill="#DB4C22"/>
<path d="M16.5491 32.7693H1.90097C0.868894 32.7693 0.0178833 31.9272 0.0178833 30.906V27.9677C0.0178833 27.7707 0.180843 27.5915 0.398121 27.5915H18.0701C18.2693 27.5915 18.4503 27.7527 18.4503 27.9677V30.906C18.4141 31.9451 17.5812 32.7693 16.5491 32.7693ZM0.760252 28.344V30.906C0.760252 31.5331 1.26724 32.0347 1.90097 32.0347H16.5491C17.1829 32.0347 17.6899 31.5331 17.6899 30.906V28.344H0.760252Z" fill="#332247"/>
<path d="M10.1216 30.1893C10.1216 30.888 9.54214 31.4434 8.8541 31.4434C8.14794 31.4434 7.58664 30.8701 7.58664 30.1893C7.58664 29.4906 8.16605 28.9352 8.8541 28.9352C9.56025 28.9352 10.1216 29.4906 10.1216 30.1893Z" fill="#F8F8ED"/>
<path d="M11.7149 3.40485H4.59906C4.32746 3.40485 4.12829 3.18985 4.12829 2.93903C4.12829 2.67028 4.34557 2.47321 4.59906 2.47321H11.7149C11.9865 2.47321 12.1857 2.6882 12.1857 2.93903C12.1857 3.18985 11.9865 3.40485 11.7149 3.40485Z" fill="#F8F8ED"/>
<path d="M14.3223 2.9388C14.3223 3.27921 14.0507 3.54795 13.7066 3.54795C13.3626 3.54795 13.091 3.27921 13.091 2.9388C13.091 2.59839 13.3626 2.32965 13.7066 2.32965C14.0507 2.32965 14.3223 2.59839 14.3223 2.9388Z" fill="#F8F8ED"/>
</svg>

<svg viewBox="0 0 19 33" fill="none" xmlns="http://www.w3.org/2000/svg"><path d="M16.55 32.411H1.902a1.491 1.491 0 01-1.503-1.487V2.545c0-.824.67-1.487 1.503-1.487H16.55c.833 0 1.503.663 1.503 1.487v28.38c0 .823-.67 1.486-1.503 1.486z" fill="#E7EFE7"/><path d="M16.55 32.41h-.127V1.059h.126c.833 0 1.503.662 1.503 1.487v28.379c0 .824-.67 1.487-1.503 1.487zM2.01 32.411h-.126A1.491 1.491 0 01.38 30.924V2.545c0-.824.67-1.487 1.503-1.487h.126v31.353z" fill="#DBE3DC"/><path d="M5.504 27.986h-2.01L7.877 4.64h2.01L5.504 27.986zM7.043 27.986L11.425 4.64h1.105L8.148 27.986" fill="#F8F8ED"/><path d="M16.549 32.77H1.9c-1.032 0-1.883-.843-1.883-1.864V2.545C.017 1.523.868.68 1.9.68H16.55c1.032 0 1.883.842 1.883 1.864v28.379a1.88 1.88 0 01-1.883 1.845zM1.882 1.415a1.13 1.13 0 00-1.14 1.129v28.379a1.13 1.13 0 001.14 1.129H16.53a1.13 1.13 0 001.141-1.13V2.546a1.13 1.13 0 00-1.14-1.13H1.881z" fill="#332247"/><path d="M18.053 4.641H.38V2.545c0-.824.67-1.487 1.503-1.487h14.648c.833 0 1.503.663 1.503 1.487v2.096h.018z" fill="#F0592C"/><path d="M2.01 4.641H.38V2.545c0-.824.67-1.487 1.504-1.487h.126v3.583zM18.052 4.64h-1.63V1.059h.127c.833 0 1.503.662 1.503 1.487V4.64z" fill="#DB4C22"/><path d="M18.052 5.017H.38A.38.38 0 010 4.641V2.545C0 1.523.851.68 1.883.68h14.648c1.032 0 1.883.842 1.883 1.864V4.64a.365.365 0 01-.362.376zM.76 4.282h16.93V2.545a1.13 1.13 0 00-1.14-1.13H1.9a1.13 1.13 0 00-1.14 1.13v1.737z" fill="#332247"/><path d="M16.55 32.411H1.9a1.491 1.491 0 01-1.503-1.487v-2.938H18.07v2.938a1.519 1.519 0 01-1.52 1.487z" fill="#F0592C"/><path d="M16.55 32.411h-.127v-4.425h1.63v2.938c0 .824-.67 1.487-1.504 1.487zM2.01 32.411h-.127A1.491 1.491 0 01.38 30.924v-2.938h1.63v4.425z" fill="#DB4C22"/><path d="M16.55 32.77H1.9c-1.032 0-1.883-.843-1.883-1.864v-2.938a.38.38 0 01.38-.377H18.07c.2 0 .38.162.38.377v2.938a1.911 1.911 0 01-1.9 1.863zM.76 28.343v2.562a1.13 1.13 0 001.141 1.129h14.648a1.13 1.13 0 001.14-1.129v-2.562H.76z" fill="#332247"/><path d="M10.122 30.19c0 .698-.58 1.253-1.268 1.253a1.264 1.264 0 01-1.267-1.254c0-.698.58-1.254 1.267-1.254.706 0 1.268.556 1.268 1.254zM11.715 3.405H4.599a.465.465 0 110-.932h7.116a.465.465 0 110 .932zM14.322 2.939c0 .34-.271.609-.615.609a.607.607 0 01-.616-.61c0-.34.272-.608.616-.608s.615.268.615.609z" fill="#F8F8ED"/></svg>
